X: 79
T: Sibao langong
%%abc-version 2.0
%%abcx-abcm2ps-target-version 5.9.1 (29 Sep 2008)
%%abc-creator hum2abc beta
%%abcx-conversion-date 2013/10/02 07:52:29
%%abc-edited-by Helmut Schaffrath
%%humdrum-veritas 3604779341
%%humdrum-veritas-data 2418098598
%%continueall 1
%%barnumbers 0
L: 1/16
M: 2/4
K: G
A B2 B A A2 B [I:setbarnb 1]| 
d2> E2G4 | 
A B2 B A A2 G | 
A2> E2D4 | 
D2 D E A2 A G | 
E2 E D E F E2 | 
A A2 B d2 z E | 
D B, D E G2 F E | 
D E2 B,A,4 |]  



